!!!COM: Haydn, Franz Joseph 
!!!OPR: Symphony in F Major 
!!!OTL: Menuetto + Trio 
!!!OMV: 3 
!!!SCT: H I:40 
!!!SCA: Thematisch-bibliographisches Werkevererzeichnis (A. van Hoboken) 
!!!YOR: Breitkopf & Härtel Edition 
!!!EED: Frances Bennion 
!!!ENC: Frances Bennion 
!!!CDT: 1732/3/31/-1809/5/31/
!!!OCY: Österreich 
!!!YEC: Copyright (c) 1994, 2000 Center for Computer Assisted Research in the Humanities 
!!!YEM: Rights to all derivative editions reserved. 
!!!YEM: Refer to licensing agreement for further details. 
!!!YEN: United States of America 
**kern	**kern	**kern	**kern	**kern	**kern	**kern	**kern	**kern
*k[b-]	*k[b-]	*k[b-]	*k[]	*k[]	*k[b-]	*k[b-]	*k[b-]	*k[b-]
*F:	*F:	*F:	*F:	*F:	*F:	*F:	*F:	*F:
*clefF	*clefF	*clefF4	*clefF	*clefF	*clefF	*clefF	*clefC3	*clefF4
*M3/4	*M3/4	*M3/4	*M3/4	*M3/4	*M3/4	*M3/4	*M3/4	*M3/4
=1	=1	=1	=1	=1	=1	=1	=1	=1
8f	8f	4F	4c	4c	8f	8f	4f	4F
8a	8a	.	.	.	8a	8a	.	.
8cc	8cc	2r	4e	4e	8cc	8cc	2r	2r
8a	8a	.	.	.	8a	8a	.	.
8ff	8ff	.	4g	4g	8ff	8ff	.	.
8cc	8cc	.	.	.	8cc	8cc	.	.
=2	=2	=2	=2	=2	=2	=2	=2	=2
4aa	4aa	4r	4cc	4cc	4aa	4aa	4r	4r
4aa	4aa	8F	2r	2r	4aa	4aa	8f	8F
.	.	8E	.	.	.	.	8e	8E
4aa	4aa	8D	.	.	4aa	4aa	8d	8D
.	.	8C	.	.	.	.	8c	8C
=3	=3	=3	=3	=3	=3	=3	=3	=3
8aa	8aa	2BB-	2.r	2.r	8aa	8aa	2B-	2BB-
8gg	8gg	.	.	.	8gg	8gg	.	.
8bb-	8bb-	.	.	.	8bb-	8bb-	.	.
8aa	8aa	.	.	.	8aa	8aa	.	.
8gg	8gg	4B-	.	.	8gg	8gg	4b-	4B-
8ff	8ff	.	.	.	8ff	8ff	.	.
=4	=4	=4	=4	=4	=4	=4	=4	=4
2ee	2ee	8B-	4r	4r	2ee	2ee	2g	8B-
.	.	8G	.	.	.	.	.	8G
.	.	8c	4dd	4g	.	.	.	8c
.	.	8B-	.	.	.	.	.	8B-
4ff	4ff	4A	4ee	4cc	4ff	4ff	4a	4A
=5	=5	=5	=5	=5	=5	=5	=5	=5
4dd	4dd	2B-	2.r	2.r	4dd	4dd	2f	2B-
8cc	8cc	.	.	.	8cc	8cc	.	.
8dd	8dd	.	.	.	8dd	8dd	.	.
8cc	8cc	4A	.	.	8cc	8cc	4f	4A
8ff	8ff	.	.	.	8ff	8ff	.	.
=6	=6	=6	=6	=6	=6	=6	=6	=6
2b-	2b-	4G	4r	4r	2b-	2b-	4f	4G
.	.	4C	4dd	4g	.	.	4e	4C
4a	4a	4F	4ee	4cc	4a	4a	4f	4F
=7	=7	=7	=7	=7	=7	=7	=7	=7
2.r	2.r	2BB-	2.r	2.r	4d	4d	2F	2BB-
.	.	.	.	.	8c	8c	.	.
.	.	.	.	.	8d	8d	.	.
.	.	4AA	.	.	8c	8c	4F	4AA
.	.	.	.	.	8f	8f	.	.
=8	=8	=8	=8	=8	=8	=8	=8	=8
2.r	2.r	4GG	4r	4r	2B-	2B-	4F	4GG
.	.	4C	4dd	4g	.	.	4E	4C
.	.	4F	4ee	4cc	4A	4A	4F	4F
=9	=9	=9	=9	=9	=9	=9	=9	=9
8f	8f	4FF	2.ee	2.cc	8f	8f	4F	4FF
8a	8a	.	.	.	8a	8a	.	.
8cc	8cc	4A	.	.	8cc	8cc	4a	4A
8ff	8ff	.	.	.	8ff	8ff	.	.
8aa	8aa	4F	.	.	8aa	8aa	4f	4F
8ff	8ff	.	.	.	8ff	8ff	.	.
=10	=10	=10	=10	=10	=10	=10	=10	=10
4gg	4gg	4E	4dd	4g	4gg	4gg	4e	4E
8ccc	8ccc	2r	2r	2r	8ccc	8ccc	2r	2r
8bb	8bb	.	.	.	8bb	8bb	.	.
8aa	8aa	.	.	.	8aa	8aa	.	.
8gg	8gg	.	.	.	8gg	8gg	.	.
=11	=11	=11	=11	=11	=11	=11	=11	=11
8ff#	8ff#	4r	2.r	2.r	8ff#	8ff#	4r	4r
8gg	8gg	.	.	.	8gg	8gg	.	.
[2ff	[2ff	8d	.	.	[2ff	[2ff	8dd	8d
.	.	8c	.	.	.	.	8cc	8c
.	.	8A	.	.	.	.	8a	8A
.	.	8B	.	.	.	.	8b	8B
=12	=12	=12	=12	=12	=12	=12	=12	=12
8ff]	8ff]	4c	4dd	4g	8ff]	8ff]	4cc	4c
8ee	8ee	.	.	.	8ee	8ee	.	.
8ccc	8ccc	2r	2r	2r	8ccc	8ccc	2r	2r
8bb	8bb	.	.	.	8bb	8bb	.	.
8aa	8aa	.	.	.	8aa	8aa	.	.
8gg	8gg	.	.	.	8gg	8gg	.	.
=13	=13	=13	=13	=13	=13	=13	=13	=13
8ff#	8ff#	4r	2.r	2.r	8ff#	8ff#	4r	4r
8gg	8gg	.	.	.	8gg	8gg	.	.
[2ff	[2ff	8d	.	.	[2ff	[2ff	8dd	8d
.	.	8c	.	.	.	.	8cc	8c
.	.	8A	.	.	.	.	8a	8A
.	.	8B	.	.	.	.	8b	8B
=14	=14	=14	=14	=14	=14	=14	=14	=14
8ff]	8ff]	4c	4dd	4g	8ff]	8ff]	4cc	4c
8ee	8ee	.	.	.	8ee	8ee	.	.
8dd	8dd	2r	2r	2r	8dd	8dd	2r	2r
8cc	8cc	.	.	.	8cc	8cc	.	.
8b	8b	.	.	.	8b	8b	.	.
8a	8a	.	.	.	8a	8a	.	.
=15	=15	=15	=15	=15	=15	=15	=15	=15
4g	4g	4r	4r	4r	4g	4g	4r	4r
4ee	4cc	4G	4dd	4dd	4ee	4cc	4g	4G
4dd	4b	4GG	4dd	4dd	4dd	4b	4G	4GG
=16	=16	=16	=16	=16	=16	=16	=16	=16
2cc	2cc	4C	2dd	2g	2cc	2cc	4c	4C
.	.	4GG	.	.	.	.	4G	4GG
4r	4r	4CC	4r	4r	4r	4r	4C	4CC
=17	=17	=17	=17	=17	=17	=17	=17	=17
4r	4r	4r	2.r	2.r	4cc	4cc	4r	4r
4ccc	4aa	8c	.	.	4ccc	4aa	8cc	8c
.	.	8B-	.	.	.	.	8b-	8B-
4ccc	4aa	8A	.	.	4ccc	4aa	8a	8A
.	.	8G	.	.	.	.	8g	8G
=18	=18	=18	=18	=18	=18	=18	=18	=18
4ccc	4aa	8F#	2.r	2.r	4ccc	4aa	8f#	8F#
.	.	8G	.	.	.	.	8g	8G
4bb	4gg	4GG	.	.	4bb	4gg	4G	4GG
4r	4r	4r	.	.	16g	16g	4r	4r
.	.	.	.	.	16f#	16f#	.	.
.	.	.	.	.	16g	16g	.	.
.	.	.	.	.	16a	16a	.	.
=19	=19	=19	=19	=19	=19	=19	=19	=19
4r	4r	4r	2.r	2.r	4b-	4b-	4r	4r
4bb-	4gg	8B-	.	.	4bb-	4gg	8b-	8B-
.	.	8A	.	.	.	.	8a	8A
4bb-	4gg	8G	.	.	4bb-	4gg	8g	8G
.	.	8F	.	.	.	.	8f	8F
=20	=20	=20	=20	=20	=20	=20	=20	=20
4bb-	4gg	8E	2.r	2.r	4bb-	4gg	8e	8E
.	.	8F	.	.	.	.	8f	8F
4aa	4ff	4FF	.	.	4aa	4ff	4F	4FF
4r	4r	4r	.	.	16f	16f	4r	4r
.	.	.	.	.	16e	16e	.	.
.	.	.	.	.	16f	16f	.	.
.	.	.	.	.	16g	16g	.	.
=21	=21	=21	=21	=21	=21	=21	=21	=21
2.r	2.r	2.r	2.r	2.r	4a	4a	2.r	2.r
.	.	.	.	.	8ff	4r	.	.
.	.	.	.	.	8ee	.	.	.
.	.	.	.	.	8dd	4a	.	.
.	.	.	.	.	8cc	.	.	.
=22	=22	=22	=22	=22	=22	=22	=22	=22
2.r	2.r	2.r	2.r	2.r	8cc	4g	2.r	2.r
.	.	.	.	.	8b-	.	.	.
.	.	.	.	.	8gg	4c	.	.
.	.	.	.	.	8b-	.	.	.
.	.	.	.	.	8b-	4f	.	.
.	.	.	.	.	8a	.	.	.
=23	=23	=23	=23	=23	=23	=23	=23	=23
2.r	2.r	2.r	2.r	2.r	8a	2B-	2.r	2.r
.	.	.	.	.	8f#	.	.	.
.	.	.	.	.	8g	.	.	.
.	.	.	.	.	8dd	.	.	.
.	.	.	.	.	8d	4B	.	.
.	.	.	.	.	8g	.	.	.
=24	=24	=24	=24	=24	=24	=24	=24	=24
2.r	2.r	4.c	2.r	2.r	2e	2c	4.c	4.c
.	.	8B-	.	.	.	.	8B-	8B-
.	.	8A	.	.	4r	4r	8A	8A
.	.	8G	.	.	.	.	8G	8G
=25	=25	=25	=25	=25	=25	=25	=25	=25
8f	8f	4F	4c	4c	8f	8f	4F	4F
8a	8a	.	.	.	8a	8a	.	.
8cc	8cc	2r	4e	4e	8cc	8cc	2r	2r
8a	8a	.	.	.	8a	8a	.	.
8ff	8ff	.	4g	4g	8ff	8ff	.	.
8cc	8cc	.	.	.	8cc	8cc	.	.
=26	=26	=26	=26	=26	=26	=26	=26	=26
4aa	4aa	4r	4cc	4cc	4aa	4aa	4r	4r
4aa	4aa	8F	2r	2r	4aa	4aa	8a	8F
.	.	8E	.	.	.	.	8g	8E
4aa	4aa	8D	.	.	4aa	4aa	8f	8D
.	.	8C	.	.	.	.	8e	8C
=27	=27	=27	=27	=27	=27	=27	=27	=27
8aa	8aa	2BB-	2.r	2.r	8aa	8aa	2.d	2BB-
8gg	8gg	.	.	.	8gg	8gg	.	.
8bb-	8bb-	.	.	.	8bb-	8bb-	.	.
8aa	8aa	.	.	.	8aa	8aa	.	.
8gg	8gg	4B-	.	.	8gg	8gg	.	4B-
8ff	8ff	.	.	.	8ff	8ff	.	.
=28	=28	=28	=28	=28	=28	=28	=28	=28
2ee	2ee	8B-	4r	4r	2ee	2ee	4c	8B-
.	.	8G	.	.	.	.	.	8G
.	.	8c	4dd	4g	.	.	4G	8c
.	.	8B-	.	.	.	.	.	8B-
4ff	4ff	4A	4ee	4cc	4ff	4ff	4F	4A
=29	=29	=29	=29	=29	=29	=29	=29	=29
4dd	4dd	2B-	2.r	2.r	4dd	4dd	2f	2B-
8cc	8cc	.	.	.	8cc	8cc	.	.
8dd	8dd	.	.	.	8dd	8dd	.	.
8cc	8cc	4A	.	.	8cc	8cc	4f	4A
8ff	8ff	.	.	.	8ff	8ff	.	.
=30	=30	=30	=30	=30	=30	=30	=30	=30
8cc	8cc	4G	4r	4r	8cc	8cc	4f	4G
8b-	8b-	.	.	.	8b-	8b-	.	.
8gg	8gg	4C	4dd	4g	8gg	8gg	4e	4C
8b-	8b-	.	.	.	8b-	8b-	.	.
8b-	8b-	4F	8ee	8cc	8b-	8b-	4f	4F
8a	8a	.	8gg	8ee	8a	8a	.	.
=31	=31	=31	=31	=31	=31	=31	=31	=31
4g	4g	4B-	4ff	4dd	12g	12g	4d	4B-
.	.	.	.	.	12b-	12b-	.	.
.	.	.	.	.	12dd	12dd	.	.
4f	4f	4c	4ee	4cc	4f	4f	4A	4c
4e	4e	4C	4dd	4g	4e	4e	4G	4C
=32	=32	=32	=32	=32	=32	=32	=32	=32
4f	4f	4F	4cc	4e	4f	4f	4F	4F
8ff	8ff	2r	2r	2r	8ff	8ff	2r	2r
8ee	8ee	.	.	.	8ee	8ee	.	.
8dd	8dd	.	.	.	8dd	8dd	.	.
8cc	8cc	.	.	.	8cc	8cc	.	.
=33	=33	=33	=33	=33	=33	=33	=33	=33
8b	8b	4r	2.r	2.r	8b	8b	4r	4r
8cc	8cc	.	.	.	8cc	8cc	.	.
[2b-	[2b-	8G	.	.	[2b-	[2b-	8g	8G
.	.	8F	.	.	.	.	8f	8F
.	.	8D	.	.	.	.	8d	8D
.	.	8E	.	.	.	.	8e	8E
=34	=34	=34	=34	=34	=34	=34	=34	=34
8b-]	8b-]	4F	4cc	4c	8b-]	8b-]	4f	4F
8a	8a	.	.	.	8a	8a	.	.
8ff	8ff	2r	2r	2r	8ff	8ff	2r	2r
8ee	8ee	.	.	.	8ee	8ee	.	.
8dd	8dd	.	.	.	8dd	8dd	.	.
8cc	8cc	.	.	.	8cc	8cc	.	.
=35	=35	=35	=35	=35	=35	=35	=35	=35
8b	8b	4r	2.r	2.r	8b	8b	4r	4r
8cc	8cc	.	.	.	8cc	8cc	.	.
[2b-	[2b-	8G	.	.	[2b-	[2b-	8g	8G
.	.	8F	.	.	.	.	8f	8F
.	.	8D	.	.	.	.	8d	8D
.	.	8E	.	.	.	.	8e	8E
=36	=36	=36	=36	=36	=36	=36	=36	=36
8b-]	8b-]	2F	4r	4r	8b-]	8b-]	2f	2F
8a	8a	.	.	.	8a	8a	.	.
8aa	8aa	.	4ee	4cc	8aa	8aa	.	.
8ff	8ff	.	.	.	8ff	8ff	.	.
8cc	8cc	4A	4gg	4ee	8cc	8cc	4a	4A
8a	8a	.	.	.	8a	8a	.	.
=37	=37	=37	=37	=37	=37	=37	=37	=37
12g	12g	4B-	4ff	4dd	12g	12g	4b-	4B-
12b-	12b-	.	.	.	12b-	12b-	.	.
12dd	12dd	.	.	.	12dd	12dd	.	.
4f	4f	4c	4ee	4cc	4f	4f	4cc	4c
4e	4e	4C	4dd	4g	4e	4e	4c	4C
=38	=38	=38	=38	=38	=38	=38	=38	=38
2f	2f	4F	2cc	2e	2f	2f	4f	4F
.	.	4C	.	.	.	.	4c	4C
4r	4r	4FF	4r	4r	4r	4r	4F	4FF
=39	=39	=39	=39	=39	=39	=39	=39	=39
2.r	2.r	4FF	2cc	2e	2f	4A	4F	4FF
.	.	4F	.	.	.	4f	4f	4F
.	.	4C	4dd	4g	8g	4e	4c	4C
.	.	.	.	.	16f	.	.	.
.	.	.	.	.	16g	.	.	.
=40	=40	=40	=40	=40	=40	=40	=40	=40
2.r	2.r	4FF	4ee	4cc	4a	4f	4F	4FF
.	.	2r	8ee	8cc	8a	8f	2r	2r
.	.	.	8ff	8dd	8b-	8g	.	.
.	.	.	8gg	8ee	8cc	8a	.	.
.	.	.	8aa	8ff	8dd	8b-	.	.
=41	=41	=41	=41	=41	=41	=41	=41	=41
2.r	2.r	4F	4gg	2ee	4cc	2a	4f	4F
.	.	4r	8ccc	.	8ff	.	4r	4r
.	.	.	8bb	.	8ee	.	.	.
.	.	4FF	8aa	4ee	8dd	4a	4F	4FF
.	.	.	8gg	.	8cc	.	.	.
=42	=42	=42	=42	=42	=42	=42	=42	=42
2.r	2.r	4C	4gg	4ee	4cc	4a	4c	4C
.	.	4C	4ff	4dd	4b-	4g	4c	4C
.	.	4F	4ee	4cc	4a	4f	4f	4F
=43	=43	=43	=43	=43	=43	=43	=43	=43
2.r	2.r	4FF	2cc	2e	2f	4A	4F	4FF
.	.	4F	.	.	.	4f	4f	4F
.	.	4C	4dd	4g	8g	4e	4c	4C
.	.	.	.	.	16f	.	.	.
.	.	.	.	.	16g	.	.	.
=44	=44	=44	=44	=44	=44	=44	=44	=44
2.r	2.r	4FF	4ee	4cc	4a	4f	4F	4FF
.	.	2r	8ee	8cc	8a	8f	2r	2r
.	.	.	8ff	8dd	8b-	8g	.	.
.	.	.	8gg	8ee	8cc	8a	.	.
.	.	.	8aa	8ff	8dd	8b-	.	.
=45	=45	=45	=45	=45	=45	=45	=45	=45
2.r	2.r	4FF	4gg	4ee	4cc	4a	4F	4FF
.	.	4BB-	4ff	4dd	4b-	4g	4B-	4BB-
.	.	4BB	4ee	4cc	4a	4f	4B	4BB
=46	=46	=46	=46	=46	=46	=46	=46	=46
2.r	2.r	4C	4ee	4cc	2g	2e	4c	4C
.	.	4c	4dd	4g	.	.	4cc	4c
.	.	8G	4r	4r	4r	4r	8g	8G
.	.	8E	.	.	.	.	8e	8E
=47	=47	=47	=47	=47	=47	=47	=47	=47
2gg	2ee	4C	2.r	2.r	2gg	2ee	4c	4C
.	.	4c	.	.	.	.	4cc	4c
12ff	12dd	4r	.	.	12ff	12dd	4r	4r
12gg	12ee	.	.	.	12gg	12ee	.	.
12aa	12ff	.	.	.	12aa	12ff	.	.
=48	=48	=48	=48	=48	=48	=48	=48	=48
4gg	4ee	4C	2.r	2.r	4gg	4ee	4c	4C
4ee	4cc	4c	.	.	4ee	4cc	4cc	4c
12ff	12dd	4r	.	.	12ff	12dd	4r	4r
12gg	12ee	.	.	.	12gg	12ee	.	.
12aa	12ff	.	.	.	12aa	12ff	.	.
=49	=49	=49	=49	=49	=49	=49	=49	=49
4gg	2ee	4C	2.r	2.r	4gg	2ee	4c	4C
8ccc	.	4r	.	.	8ccc	.	4r	4r
8bb	.	.	.	.	8bb	.	.	.
8aa	4ee	4C	.	.	8aa	4ee	4c	4C
8gg	.	.	.	.	8gg	.	.	.
=50	=50	=50	=50	=50	=50	=50	=50	=50
4gg	4ee	2G	2.r	2.r	4gg	4ee	2g	2G
4ff	4dd	.	.	.	4ff	4dd	.	.
4ee	4cc	4A	.	.	4ee	4cc	4a	4A
=51	=51	=51	=51	=51	=51	=51	=51	=51
12aa	12ff	4F	2.r	2.r	12aa	12ff	4f	4F
12gg	12ee	.	.	.	12gg	12ee	.	.
12ff	12dd	.	.	.	12ff	12dd	.	.
4ee	4cc	4G	.	.	4ee	4cc	4g	4G
4dd	4b	4GG	.	.	4dd	4b	4G	4GG
=52	=52	=52	=52	=52	=52	=52	=52	=52
2cc	2cc	4C	2.r	2.r	2cc	2cc	4c	4C
.	.	4GG	.	.	.	.	4G	4GG
4r	4r	4CC	.	.	4r	4r	4C	4CC
=53	=53	=53	=53	=53	=53	=53	=53	=53
2cc	2e	4r	2.r	2.r	2cc	2e	4r	4r
.	.	4c	.	.	.	.	4cc	4c
12ee	12g	4B-	.	.	12ee	12g	4b-	4B-
12ff	12f	.	.	.	12ff	12f	.	.
12gg	12e	.	.	.	12gg	12e	.	.
=54	=54	=54	=54	=54	=54	=54	=54	=54
4ff	2f	2A	2.r	2.r	4ff	2f	2a	2A
4cc	.	.	.	.	4cc	.	.	.
12ff	12a	4F	.	.	12ff	12a	4f	4F
12gg	12g	.	.	.	12gg	12g	.	.
12aa	12f	.	.	.	12aa	12f	.	.
=55	=55	=55	=55	=55	=55	=55	=55	=55
4gg	2g	2E	2.r	2.r	4gg	2g	2e	2E
4cc	.	.	.	.	4cc	.	.	.
12gg	12ee	4C	.	.	12gg	12ee	4c	4C
12aa	12ff	.	.	.	12aa	12ff	.	.
12bb-	12gg	.	.	.	12bb-	12gg	.	.
=56	=56	=56	=56	=56	=56	=56	=56	=56
2aa	2ff	8F	2.r	2.r	2aa	2ff	8f	8F
.	.	8G	.	.	.	.	8g	8G
.	.	8A	.	.	.	.	8a	8A
.	.	8B-	.	.	.	.	8b-	8B-
4gg	4ee	4c	.	.	4gg	4ee	4cc	4c
=57	=57	=57	=57	=57	=57	=57	=57	=57
2.r	2.r	4r	2g	2g	2c	2c	4r	4r
.	.	4C	.	.	.	.	4c	4C
.	.	4C	4dd	4g	12e	4B-	4c	4C
.	.	.	.	.	12f	.	.	.
.	.	.	.	.	12g	.	.	.
=58	=58	=58	=58	=58	=58	=58	=58	=58
2.r	2.r	[2.C	2cc	2e	4f	2A	[2.c	[2.C
.	.	.	.	.	4c	.	.	.
.	.	.	4ee	4cc	12f	8A	.	.
.	.	.	.	.	12g	8f	.	.
.	.	.	.	.	12a	.	.	.
=59	=59	=59	=59	=59	=59	=59	=59	=59
2.r	2.r	4C]	8.dd	4g	8.g	8.e	4c]	4C]
.	.	.	16ee	.	16a	16f	.	.
.	.	4C	4ff	4dd	4b-	4g	4c	4C
.	.	4C	4ee	4cc	4a	4f	4c	4C
=60	=60	=60	=60	=60	=60	=60	=60	=60
2.r	2.r	4C	4dd	4g	4g	4e	4c	4C
.	.	8c	2r	2r	2r	2r	8cc	8c
.	.	8B-	.	.	.	.	8b-	8B-
.	.	8A	.	.	.	.	8a	8A
.	.	8G	.	.	.	.	8g	8G
=61	=61	=61	=61	=61	=61	=61	=61	=61
2f	2f	4F	2cc	2e	2f	4A	4f	4F
.	.	4F	.	.	.	4f	4f	4F
8g	4e	4C	4dd	4g	8g	4e	4c	4C
16f	.	.	.	.	16f	.	.	.
16g	.	.	.	.	16g	.	.	.
=62	=62	=62	=62	=62	=62	=62	=62	=62
4a	4f	4FF	4ee	4cc	4a	4f	4F	4FF
8a	8f	2r	8ee	8cc	8a	8f	2r	2r
8b-	8g	.	8ff	8dd	8b-	8g	.	.
8cc	8a	.	8gg	8ee	8cc	8a	.	.
8dd	8b-	.	8aa	8ff	8dd	8b-	.	.
=63	=63	=63	=63	=63	=63	=63	=63	=63
4cc	2a	4F	4gg	2ee	4cc	2a	4f	4F
8ff	.	4r	8ccc	.	8ff	.	4r	4r
8ee	.	.	8bb	.	8ee	.	.	.
8dd	4a	4F	8aa	4ee	8dd	4a	4f	4F
8cc	.	.	8gg	.	8cc	.	.	.
=64	=64	=64	=64	=64	=64	=64	=64	=64
2b-	2g	4c	2ff	2dd	2b-	2g	4cc	4c
.	.	4C	.	.	.	.	4c	4C
4a	4f	4F	4ee	4cc	4a	4f	4f	4F
=65	=65	=65	=65	=65	=65	=65	=65	=65
2dd	2b-	4BB-	2.aa	2.ff	2dd	2b-	4B-	4BB-
.	.	4B-	.	.	.	.	4b-	4B-
12ff	12dd	4BB-	.	.	12ff	12dd	4B-	4BB-
12ee	12cc	.	.	.	12ee	12cc	.	.
12dd	12b-	.	.	.	12dd	12b-	.	.
=66	=66	=66	=66	=66	=66	=66	=66	=66
4cc	2a	4F	4gg	2ee	4cc	2a	4f	4F
8ff	.	2r	8ccc	.	8ff	.	2r	2r
8ee	.	.	8bb	.	8ee	.	.	.
8dd	4a	.	8aa	4ee	8dd	4a	.	.
8cc	.	.	8gg	.	8cc	.	.	.
=67	=67	=67	=67	=67	=67	=67	=67	=67
12dd	12b-	4BB-	4ff	4dd	12dd	12b-	4B-	4BB-
12cc	12a	.	.	.	12cc	12a	.	.
12b-	12g	.	.	.	12b-	12g	.	.
4a	4f	4C	4ee	4cc	4a	4f	4c	4C
4g	4e	4C	4dd	4g	4g	4e	4c	4C
=68	=68	=68	=68	=68	=68	=68	=68	=68
2f	2f	4F	2cc	2e	2f	2f	4f	4F
.	.	4C	.	.	.	.	4c	4C
4r	4r	4FF	4r	4r	4r	4r	4F	4FF
==	==	==	==	==	==	==	==	==
*-	*-	*-	*-	*-	*-	*-	*-	*-
!!!RWG1: This file contains only pitch and duration data.
!!!RWG2: Transposing instruments are not transposed.
!!!RWG3: Spines may have incompatible meters.
!!!RWG4: Durations of rests and tied notes may be interpreted.
!!!RWG: Key is interpreted using the Humdrum key tool.
!!!AFT: stage1 
!!!END: 2000/12/13
!!format changes:
!!content changes:
!!public access: complete
!!!KEY: 3700965275
!!!EMD: Converted from MuseData to Humdrum Dec 16, 2000, by Andreas Kornstaedt using muse2kern.
